pk/folder-protection-one.svg

<svg viewBox="0 0 48 48" fill="none" xmlns="http://www.w3.org/2000/svg" height="1em" width="1em">
  <path d="M43 23V14C43 12.8954 42.1046 12 41 12H24L19 6H7C5.89543 6 5 6.89543 5 8V40C5 41.1046 5.89543 42 7 42H22" stroke="black" stroke-width="4" stroke-linecap="round" stroke-linejoin="round"/>
  <path d="M28 30.8C28 29.8667 34 28 34 28C34 28 40 29.8667 40 30.8C40 38.2667 34 42 34 42C34 42 28 38.2667 28 30.8Z" fill="#2F88FF" stroke="black" stroke-width="4" stroke-linecap="round" stroke-linejoin="round"/>
</svg>

<svg viewBox="0 0 48 48" fill="none" xmlns="http://www.w3.org/2000/svg" height="1em" width="1em">
  <path d="M43 23v-9a2 2 0 0 0-2-2H24l-5-6H7a2 2 0 0 0-2 2v32a2 2 0 0 0 2 2h15" stroke="#000" stroke-width="4" stroke-linecap="round" stroke-linejoin="round"/>
  <path d="M28 30.8c0-.933 6-2.8 6-2.8s6 1.867 6 2.8c0 7.467-6 11.2-6 11.2s-6-3.733-6-11.2Z" fill="#2F88FF" stroke="#000" stroke-width="4" stroke-linecap="round" stroke-linejoin="round"/>
</svg>
